X:1
T: Mr. Hamilton of Pencaitland
C:
R:Strathspey
Q: 128
K:C
M:4/4
L:1/16
|:E3/2D1/2|C2c2 dcBA AGFE c4|C2c2 c2BA B3d d3e|f3e d3B c2B2 A2G2|ABcB dcBA G2c2 c2E3/2D1/2|
C2c2 dcBA AGFE c4|C2c2 c2BA B3d d3e|f3e d3B c2B2 A2G2|ABcB dcBA G2c2 c2ed|
c3g efga g2c2 agfe|f2ag fedc B2d2 d2ed|c3d e3f g2e2 f2a2|g2e2 fedc G2c2 c2ed|
c2g2 efga g2c2 agfe|f2ag fedc B2d2 d2gf|e3d c3A G2E2 F2G2|ABcB dcBA G2c2 c2:|
